X:19026
T:Xiraldilla (CT 246)
R:Xiraldilla
C:Tradicional
S:Msica Tradicional Asturiana, (C) Tello & Tito. Asturies, 2001.
S:http://pagina.de/MusTradAst <telloytito@asturies.org>
N:Xiraldilla, dictada por Aurelio Noval, de veinte aos, de La Pola Siero.
O:La Pola Siero (Siero)
A:Asturies
Z:Cancioneru de Torner 246
M:3/8
L:1/8
Q:3/8=88
W:El carbonero
W:que est en la esquina:
W:no hay quien me compre
W:carbn d'ancina
W:Carbn d'ancina,
W:que no es de roble.
W:El Carbonero!
W:Adios, que voime.
K:G
B
|dd^c|d2 B|dd^c|d B2|ccA|G2 A|GGF|G2 B|
dd^c|d2 B|dd^c|d2 B|ccA|G2 A|GGF|G2 z||
